src/images/chevron.svg

<?xml version="1.0" encoding="UTF-8"?>
<svg width="6px" height="11px" viewBox="0 0 6 11" version="1.1" xmlns="http://www.w3.org/2000/svg" xmlns:xlink="http://www.w3.org/1999/xlink">
    <!-- Generator: Sketch 54.1 (76490) - https://sketchapp.com -->
    <title>chevron</title>
    <desc>Created with Sketch.</desc>
    <g id="revamp" stroke="none" stroke-width="1" fill="none" fill-rule="evenodd">
        <g id="new-dashboard" transform="translate(-402.000000, -93.000000)" fill="#CACACB" fill-rule="nonzero">
            <g id="chevron" transform="translate(402.000000, 93.000000)">
                <path d="M5.59380265,4.67164501 L0.791360913,0.614694935 C0.610554602,0.461980206 0.317172963,0.461745831 0.136065462,0.614128529 C-0.0450883746,0.766511227 -0.045389564,1.01383526 0.13537041,1.16654999 L4.93815967,5.22379303 C5.11882697,5.3760976 5.11882697,5.62390992 4.93781215,5.77650746 L0.13537041,9.83345753 C-0.045389564,9.98617226 -0.0450883746,10.2334963 0.136065462,10.385879 C0.226491786,10.4619727 0.344951892,10.5 0.463365661,10.5 C0.582103788,10.5 0.700841915,10.4617578 0.791360913,10.3852931 L5.59345512,6.32863595 C6.13545702,5.87172223 6.13545702,5.12826576 5.59380265,4.67164501 Z" id="Path"></path>
            </g>
        </g>
    </g>
</svg>

<svg height="11" viewBox="0 0 6 11" width="6" xmlns="http://www.w3.org/2000/svg"><path d="m5.59380265 4.67164501-4.80244174-4.05695007c-.18080631-.15271473-.47418795-.15294911-.65529545-.00056641-.18115383.1523827-.18145502.39970673-.00069505.55242146l4.80278926 4.05724304c.1806673.15230457.1806673.40011689-.00034752.55271443l-4.80244174 4.05695007c-.18075997.15271473-.18045878.40003877.00069505.55242147.09042633.0760937.20888643.114121.3273002.114121.11873813 0 .23747626-.0382422.32799525-.1147069l4.80209421-4.05665715c.5420019-.45691372.5420019-1.20037019.00034753-1.65699094z" fill="#cacacb"/></svg>
